Newaita-dark/actions/scalable/format-text-underline.svg

<?xml version="1.0" encoding="UTF-8"?>
<svg xmlns="http://www.w3.org/2000/svg" xmlns:xlink="http://www.w3.org/1999/xlink" width="512pt" height="512pt" viewBox="0 0 512 512" version="1.1">
<g id="surface1">
<path style=" stroke:none;fill-rule:nonzero;fill:rgb(47.058824%,56.470591%,61.176473%);fill-opacity:1;" d="M 254.023438 67.507812 C 206.835938 67.507812 165.820312 86.613281 143.917969 115.117188 L 179.121094 137.117188 C 192.484375 120.828125 218.21875 109.84375 247.910156 109.84375 L 260.136719 109.84375 C 303.660156 109.84375 338.699219 133.445312 338.699219 162.765625 L 338.699219 226.269531 C 316.257812 211.242188 286.613281 202.128906 254.023438 202.128906 C 183.660156 202.128906 127.011719 244.613281 127.011719 297.386719 L 127.011719 307.972656 L 127.78125 307.972656 C 134.761719 355.726562 188.429688 392.648438 254.023438 392.648438 C 286.617188 392.648438 316.257812 383.527344 338.699219 368.5 L 338.699219 390.328125 L 381.035156 390.328125 L 381.035156 162.765625 C 381.035156 109.992188 324.390625 67.507812 254.023438 67.507812 Z M 247.910156 244.464844 L 260.136719 244.464844 C 303.660156 244.464844 338.699219 268.070312 338.699219 297.386719 C 338.699219 326.707031 303.660156 350.308594 260.136719 350.308594 L 247.910156 350.308594 C 204.386719 350.308594 169.347656 326.707031 169.347656 297.386719 C 169.347656 268.070312 204.386719 244.464844 247.910156 244.464844 Z M 247.910156 244.464844 "/>
<path style=" stroke:none;fill-rule:nonzero;fill:rgb(14.901961%,65.098041%,60.392159%);fill-opacity:1;" d="M 100.550781 437.957031 L 407.496094 437.957031 C 416.265625 437.957031 423.375 445.066406 423.375 453.835938 C 423.375 462.601562 416.265625 469.710938 407.496094 469.710938 L 100.550781 469.710938 C 91.78125 469.710938 84.675781 462.601562 84.675781 453.835938 C 84.675781 445.066406 91.78125 437.957031 100.550781 437.957031 Z M 100.550781 437.957031 "/>
</g>
</svg>

<svg xmlns="http://www.w3.org/2000/svg" width="512pt" height="512pt" viewBox="0 0 512 512"><path d="M254.023 67.508c-47.187 0-88.203 19.105-110.105 47.61l35.203 22c13.363-16.29 39.098-27.274 68.79-27.274h12.226c43.523 0 78.562 23.601 78.562 52.922v63.504c-22.441-15.028-52.086-24.141-84.676-24.141-70.363 0-127.011 42.484-127.011 95.258v10.586h.77c6.98 47.754 60.648 84.675 126.241 84.675 32.594 0 62.235-9.12 84.676-24.148v21.828h42.336V162.766c0-52.774-56.644-95.258-127.012-95.258zm-6.113 176.957h12.227c43.523 0 78.562 23.605 78.562 52.922 0 29.32-35.039 52.922-78.562 52.922H247.91c-43.523 0-78.562-23.602-78.562-52.922 0-29.317 35.039-52.922 78.562-52.922zm0 0" fill="#78909c"/><path d="M100.55 437.957h306.946c8.77 0 15.879 7.11 15.879 15.879 0 8.766-7.11 15.875-15.879 15.875H100.551c-8.77 0-15.875-7.11-15.875-15.875 0-8.77 7.105-15.879 15.875-15.879zm0 0" fill="#26a69a"/></svg>
